X:1
T:Title
%%score { ( 1 4 5 ) | ( 2 3 ) }
L:1/8
M:6/4
K:Eb
V:1 treble nm="Grand Piano"
V:4 treble 
V:5 treble 
V:2 treble 
V:3 treble 
V:1
 z12[Q:1/4=216] | .[EGc]4 [C_G=A]2 [E=GB]4 [Ge]2 | [Ae]6 z6 | [Ac]2 d2 [FA]2 [Ac]2 d2 [FA]2 | %4
[M:5/4] [E_Gc]6 z4 |[M:1/4] z2 |[M:6/4] .[EGc]4 [C_G=A]2 [E=GB]4 [Ge]2 | .=A6 z6 | %8
 .[B,CEG]6 .[CE=A]6 | B12 | e6 d6 | .B12 | c6 B6 | .A12 | [FA]2 G2 [DF]2 [FA]2 G2 [DF]2 | B6 .B6 | %16
 z6 .=A6 |[M:5/4] [DB]2- [DB]2- [DB]6 |[M:1/4] [DAB]2 |[M:6/4] [Gc]2 [GB]2 [_G=A]2 [=GB]4 [Ge]2 | %20
 [Ae]6 [Ad]4 [Ac]2 | z6 .[Ad]6[K:bass][K:treble] | [_Gc]6 [E=GB]4 B2 | c2 =B2 c2 d4 c2 | %24
[M:7/4] B2 =A2 B2 [=Ec]6 [EG]2 |[M:6/4] A2 B2 c2 d4 B2 |[M:5/4] [Ge]6[K:bass][K:treble] z4 |] %27
V:2
 z6 z4 B2 | z2 B2[K:bass] E,2 E,4 [E,B,]2 | z6 B,6 | %3
 z2[K:treble] B2 B,2[K:bass] z2[K:treble] B2 B,2 |[M:5/4][K:bass] E,2 _G,2 =A,2 E,4 | %5
[M:1/4][K:treble] B2 |[M:6/4] z2 B2[K:bass] E,2 E,4 [E,B,]2 | %7
 [F,,F,]2 [G,,G,]2 [=A,,=A,]2 [B,,B,]2 F,2 E,2 | z2[K:treble] _G2 =G2 z2 G2 =A2 | %9
 B,,2 D,2 F,2 [B,D]2 C2[K:treble] D2 | z2 G2 G2 z2 G2 G2 | z2 E2 E2 E2 =A,2 B,2 | %12
 z2 E2 E2 z2 [CE]2 [CE]2 | z2 C2 C2 C2[K:bass] F,2 G,2 | z2 E2 B,2 z2 E2 [A,,A,]2 | %15
 z2 B,2 [F,,F,]2 z2 B,2 B,2 | z2[K:treble] G2 D2[K:bass] [F,,F,]2 [G,,G,]2 [=A,,=A,]2 | %17
[M:5/4] [B,,B,]2 C,2 B,,2 A,,2 G,,2 |[M:1/4] F,2 |[M:6/4] [E,E]2 [E,E]2 [E,E]2 [E,E]4 [E,B,]2 | %20
 [F,B,]6 [F,B,]4 [F,B,]2 | B,,2 B,,2 B,,2 .[B,,B,]4 [D,B,]2 | =A,4 C2 E,4 [E,G,E]2 | %23
 [A,E]2 [A,D]2 [A,E]2 [_G,=A,E]4 [G,A,E]2 |[M:7/4] [G,B,E]2 [_G,CE]2 [=G,B,E]2 [C,B,]6 [C,C]2 | %25
[M:6/4][K:treble] [F,CF]2 [G,E]2 [A,E]2 [B,A]4 [B,A]2 |[M:5/4][K:bass] [E,B,]6 [E,,E,B,G]4 |] %27
V:3
 x12 | .E,6[K:bass] z6 | [F,B,]4 F,2 z4 F2 | .B,,6[K:treble][K:bass] .B,,6[K:treble] | %4
[M:5/4][K:bass] x10 |[M:1/4][K:treble] x2 |[M:6/4] .E,6[K:bass] z6 | x12 | .C,6[K:treble] .F,6 | %9
 x10[K:treble] x2 | E6 D6 | .B,12 | C6 B,6 | .A,12[K:bass] | .B,,6 .B,,6 | .[G,,G,]6 [=E,,=E,]6 | %16
 .F,,6[K:treble][K:bass] z6 |[M:5/4] x10 |[M:1/4] x2 |[M:6/4] x12 | x12 | x12 | E,6 z6 | x12 | %24
[M:7/4] x14 |[M:6/4][K:treble] x12 |[M:5/4][K:bass] x10 |] %27
V:4
 x12 | x12 | z4 B,2 [Ad]4 A2 | x12 |[M:5/4] z2 =A,2 C2 [E=GB]4 |[M:1/4] x2 |[M:6/4] x12 | %7
 [Fe]2- [FGe-]2 [Fe]2 [Fd]4 F2 | x12 | z6 .A6 | z2 B2 B2 z2 B2 B2 | z2 G2 G2 G2 =A2 B2 | %12
 z2 G2 G2 z2 G2 G2 | z2 F2 F2 F2 F2 G2 | x12 | z2 E2 [B,D]2 [B,_DG]2 [DG]2 [DG]2 | %16
 .[F,DF]4 B2 E2- [Ed]2 [Ec]2 |[M:5/4] z2 C2 B,2 A,2 G,2 |[M:1/4] x2 |[M:6/4] x12 | x12 | %21
 [DFA]2 [_D=EG]2 [=DFA]2 z2[K:bass] C,2[K:treble] [Ac]2 | x12 | x12 |[M:7/4] x14 |[M:6/4] x12 | %26
[M:5/4] z2[K:bass] B,,2 G,,2[K:treble] e4 |] %27
V:5
 x12 | x12 | x12 | x12 |[M:5/4] x10 |[M:1/4] x2 |[M:6/4] x12 | x12 | x12 | D6 z2 E2 F2 | x12 | %11
 x12 | x12 | x12 | x12 | x12 | x12 |[M:5/4] x10 |[M:1/4] x2 |[M:6/4] x12 | x12 | %21
 x8[K:bass] x2[K:treble] x2 | x12 | x12 |[M:7/4] x14 |[M:6/4] x12 | %26
[M:5/4] x2[K:bass] x4[K:treble] x4 |] %27

